resources/svg/bath-o.svg

<svg width="15" height="15" viewBox="0 0 15 15" fill="none" xmlns="http://www.w3.org/2000/svg">
<path d="M0 7.5H15M4.5 12.5H10.5M4.5 12.5C2.84315 12.5 1.5 11.1569 1.5 9.5V3.5C1.5 1.84315 2.84315 0.5 4.5 0.5H6.5V2M4.5 12.5V15M10.5 12.5C12.1569 12.5 13.5 11.1569 13.5 9.5V7.5M10.5 12.5V15M5 3.5H8" stroke="black"/>
</svg>

<svg viewBox="0 0 15 15" fill="none" xmlns="http://www.w3.org/2000/svg" fill="currentColor"><path d="M0 7.5h15m-10.5 5h6m-6 0a3 3 0 01-3-3v-6a3 3 0 013-3h2V2m-2 10.5V15m6-2.5a3 3 0 003-3v-2m-3 5V15M5 3.5h3" stroke="currentColor"/></svg>
